X:30
T:Paddy Canny's Toast
R:reel
D:John Williams: Steam
Z:Devin McCabe/Jeff Welty
M:C|
L:1/8
Q:180
K:GDor
G2cG dGcG|EFcF CFcF|G2cG dGcG|FG A/2=B/2c fdcA|
!G2cG dGcG|EFcF CFcF|DEFD GABd|cAfA ~B2AB|
!G2cG dGcG|EFcF CFcF|G2cG dGcG|efcA FGAF|
!G2cG dGcG|EFcF CFcF|DEFD GABd|cAfA ~B2AB|
!:Ggg^f gdBA|Ggge ~f2eg|fB (3BBB FBDB|fB (3BBB fdcA|
!Ggg^f gdBA|Ggga bage|~f3g afge|fdcA ~B2AB:||
